packages/foundations/assets/icons/functional/images/social/thumbs_down_12.svg

<svg width="12" height="12" viewBox="0 0 12 12" fill="none" xmlns="http://www.w3.org/2000/svg">
<g clip-path="url(#clip0_232_453)">
<path fill-rule="evenodd" clip-rule="evenodd" d="M8.10601 7.80059C8.20261 8.08259 8.29321 8.40899 8.34121 8.74559C8.41681 9.27479 8.29141 9.77699 7.98601 10.1592C7.69321 10.527 7.26121 10.7598 6.76201 10.8C5.79301 10.7892 5.47801 9.79499 5.34961 9.38459C5.04001 8.53619 4.57501 8.08739 4.19101 7.84559C4.16701 8.15519 3.91561 8.40119 3.60001 8.40119H1.80001C1.46881 8.40119 1.20001 8.13299 1.20001 7.80119V2.39999C1.20001 2.06819 1.46881 1.79999 1.80001 1.79999H3.60001C3.86521 1.79999 4.08301 1.97459 4.16221 2.21339C5.22601 1.76699 6.67921 1.19999 7.20001 1.19999C8.94961 1.19999 10.8 3.35879 10.8 5.39999C10.8 6.05639 10.8 7.79999 9.00001 7.79999L8.10601 7.80059ZM2.40001 3.00059V7.20119H3.00001V3.11699V3.00059H2.40001ZM4.20001 3.50339V6.52079C4.83961 6.75599 5.89441 7.37879 6.48601 8.99999C6.61741 9.41879 6.70741 9.55259 6.75181 9.59579C6.84661 9.57599 6.96181 9.52019 7.04761 9.41219C7.14721 9.28739 7.18261 9.12059 7.15321 8.91599C7.05001 8.19599 6.67561 7.49279 6.67141 7.48559C6.57121 7.29959 6.57661 7.07399 6.68461 6.89339C6.79261 6.71279 6.98821 6.60119 7.19941 6.60119H8.99941C9.34801 6.60119 9.59941 6.60119 9.59941 5.40119C9.59941 3.91319 8.20321 2.40119 7.20361 2.40119C6.88801 2.41619 5.47021 2.95859 4.20001 3.50339Z" fill="#1A1C1F"/>
</g>
<defs>
<clipPath id="clip0_232_453">
<rect width="12" height="12" fill="white"/>
</clipPath>
</defs>
</svg>

<svg xmlns="http://www.w3.org/2000/svg" width="12" height="12" fill="none"><g clip-path="url(#a)"><path fill="#1A1C1F" fill-rule="evenodd" d="M8.106 7.8c.097.283.187.609.235.946.076.529-.05 1.031-.355 1.413a1.72 1.72 0 0 1-1.224.641c-.969-.01-1.284-1.005-1.412-1.415-.31-.849-.775-1.298-1.159-1.54a.595.595 0 0 1-.591.556H1.8a.6.6 0 0 1-.6-.6V2.4a.6.6 0 0 1 .6-.6h1.8c.265 0 .483.175.562.413C5.226 1.767 6.68 1.2 7.2 1.2c1.75 0 3.6 2.159 3.6 4.2 0 .656 0 2.4-1.8 2.4zM2.4 3v4.201H3v-4.2zm1.8.503v3.018c.64.235 1.694.858 2.286 2.479.131.419.221.553.266.596a.52.52 0 0 0 .296-.184q.15-.188.105-.496c-.103-.72-.477-1.423-.482-1.43A.6.6 0 0 1 7.2 6.6H9c.349 0 .6 0 .6-1.2 0-1.488-1.396-3-2.395-3-.316.015-1.734.558-3.004 1.102" clip-rule="evenodd"/></g><defs><clipPath id="a"><path fill="#fff" d="M0 0h12v12H0z"/></clipPath></defs></svg>
